X: 1038
T: Alston, The
R: hornpipe
M: 4/4
K: Gmajor
|:d>c|B>d g2- g2 b>g|f>a [c2c'2]- [c2c'2] [Aa]>[Bb]|[c3/2c'3/2]a/[B3/2b3/2]g/ [A3/2a3/2]f/[G3/2g3/2]b/|a>f d2- d2 d>c|
B>d g2 g>b (3bag|f>a c2- c2 e>c|B>Gc>A B>GA>F|G2 g2 G2:|
|:d>c|B>dg>d b>dg>B|e>cG>E [C2c2] e>d|^c>ea>e =c>ea>e|f>dA>F D2 (3edc|
B>d g2- g2 b>g|f>a c2 c2 (3edc|(3BAG c>A B>G (3AGF|G2 g2 G2:|

